svgs/sharp-light/up-to-dotted-line.svg

<svg xmlns="http://www.w3.org/2000/svg" viewBox="0 0 448 512"><!--! Font Awesome Pro 6.6.0 by @fontawesome - https://fontawesome.com License - https://fontawesome.com/license (Commercial License) Copyright 2024 Fonticons, Inc. --><path d="M56 40l0 48L8 88 8 40l48 0zm96 0l0 48-48 0 0-48 48 0zm48 0l48 0 0 48-48 0 0-48zm144 0l0 48-48 0 0-48 48 0zm48 0l48 0 0 48-48 0 0-48zM272 336l0-32 32 0 48 0 0-17.7L224 171.1 96 286.3 96 304l48 0 32 0 0 32 0 112 96 0 0-112zm112 0l-32 0-16 0-32 0 0 32 0 80 0 32-32 0-96 0-32 0 0-32 0-80 0-32-32 0-16 0-32 0 0-32 0-32L224 128 384 272l0 32 0 32z"/></svg>

<svg xmlns="http://www.w3.org/2000/svg" viewBox="0 0 448 512"><!--! Font Awesome Pro 6.4.2 by @fontawesome - https://fontawesome.com License - https://fontawesome.com/license (Commercial License) Copyright 2023 Fonticons, Inc. --><path d="M56 40V88H8V40H56zm96 0V88H104V40h48zm48 0h48V88H200V40zm144 0V88H296V40h48zm48 0h48V88H392V40zM272 336V304h32 48V286.3L224 171.1 96 286.3V304h48 32v32V448h96V336zm112 0H352 336 304v32 80 32H272 176 144V448 368 336H112 96 64V304 272L224 128 384 272v32 32z"/></svg>
